X: 1
T: las Fatmas
C: Marcel Piaud
R: shottish
S: Handout at 2014 NEFFA
Z: 2015 John Chambers <jc:trillian.mit.edu>
M: 4/4
L: 1/4
K: Am
EE |\
"Am"A2 cc | "E7"B2 Bc | dd cB |1,3 "Am"cA :|2,4 "Am"A2 |: fe | "Dm"d>e fe |
"G"B2 Bc | "E7"dd cB | "Am"cA fe | "Dm"d>e fe | "G"B2 BF | "E7"EE cB | "Am"A2 :|
